X:1
T:Under the Rose. ThoH.001
Q:1/2=80
M:C
L:1/8
B:Thompson's Compleat Collection of 120 Favourite Hornpipes.
Z:Village Music Project, Simon Wilson 2016
O:England.
K:G
|:G4B3c|(dB)(gd)B'4|F2 A2-A2 B2|(cA)(fc) (acBA)|G2B2-B2c2|(dB)(ba) (gfed)|(^ce)(Ac) (egfe)|(fa)(^ce)d4:|
|:d2(ef) (gaba)|(gfed) cACE|A,2a2{b}Ta3g|(fedc) BGB,D|G,2g2{a}Tg3f|(edcB) {d}Tc3B|(Aced) (cBAB)|(cABc)F2(ED)|
d2ga b2ba|(gfed) cACE|A,2fga2ag|(fedc) BGB,D|G,2efg2gf|(edcB) cedc|BdGB AcFA|1GDB,DG,4:|2G4G,4|]

